img/header/banner__svg-bottom-1.svg

<svg width="527" height="527" viewBox="0 0 527 527" fill="none"
     xmlns="http://www.w3.org/2000/svg">
  <path
    d="M223.6 433H303.4C307.045 433 310 435.955 310 439.6V519.4C310 523.045 307.045 526 303.4 526H223.6C219.955 526 217 523.045 217 519.4V439.6C217 435.955 219.955 433 223.6 433Z"
    stroke="url(#paint0_linear-bottom_2:28)" stroke-width="2" />
  <path
    d="M331.6 433H411.4C415.045 433 418 435.955 418 439.6V519.4C418 523.045 415.045 526 411.4 526H331.6C327.955 526 325 523.045 325 519.4V439.6C325 435.955 327.955 433 331.6 433Z"
    stroke="url(#paint1_linear-bottom_2:28)" stroke-width="2" />
  <path
    d="M439.6 433H519.4C523.045 433 526 435.955 526 439.6V519.4C526 523.045 523.045 526 519.4 526H439.6C435.955 526 433 523.045 433 519.4V439.6C433 435.955 435.955 433 439.6 433Z"
    stroke="url(#paint2_linear-bottom_2:28)" stroke-width="2" />
  <path
    d="M115.6 433H195.4C199.045 433 202 435.955 202 439.6V519.4C202 523.045 199.045 526 195.4 526H115.6C111.955 526 109 523.045 109 519.4V439.6C109 435.955 111.955 433 115.6 433Z"
    stroke="url(#paint3_linear-bottom_2:28)" stroke-width="2" />
  <path
    d="M7.6 433H87.4C91.0451 433 94 435.955 94 439.6V519.4C94 523.045 91.0451 526 87.4 526H7.6C3.95492 526 1 523.045 1 519.4V439.6C1 435.955 3.95492 433 7.6 433Z"
    stroke="url(#paint4_linear-bottom_2:28)" stroke-width="2" />
  <path
    d="M439.6 325H519.4C523.045 325 526 327.955 526 331.6V411.4C526 415.045 523.045 418 519.4 418H439.6C435.955 418 433 415.045 433 411.4V331.6C433 327.955 435.955 325 439.6 325Z"
    stroke="url(#paint5_linear-bottom_2:28)" stroke-width="2" />
  <path
    d="M331.6 325H411.4C415.045 325 418 327.955 418 331.6V411.4C418 415.045 415.045 418 411.4 418H331.6C327.955 418 325 415.045 325 411.4V331.6C325 327.955 327.955 325 331.6 325Z"
    stroke="url(#paint6_linear-bottom_2:28)" stroke-width="2" />
  <path
    d="M223.6 325H303.4C307.045 325 310 327.955 310 331.6V411.4C310 415.045 307.045 418 303.4 418H223.6C219.955 418 217 415.045 217 411.4V331.6C217 327.955 219.955 325 223.6 325Z"
    stroke="url(#paint7_linear-bottom_2:28)" stroke-width="2" />
  <path
    d="M115.6 325H195.4C199.045 325 202 327.955 202 331.6V411.4C202 415.045 199.045 418 195.4 418H115.6C111.955 418 109 415.045 109 411.4V331.6C109 327.955 111.955 325 115.6 325Z"
    stroke="url(#paint8_linear-bottom_2:28)" stroke-width="2" />
  <path
    d="M439.6 217H519.4C523.045 217 526 219.955 526 223.6V303.4C526 307.045 523.045 310 519.4 310H439.6C435.955 310 433 307.045 433 303.4V223.6C433 219.955 435.955 217 439.6 217Z"
    stroke="url(#paint9_linear-bottom_2:28)" stroke-width="2" />
  <path
    d="M331.6 217H411.4C415.045 217 418 219.955 418 223.6V303.4C418 307.045 415.045 310 411.4 310H331.6C327.955 310 325 307.045 325 303.4V223.6C325 219.955 327.955 217 331.6 217Z"
    stroke="url(#paint10_linear-bottom_2:28)" stroke-width="2" />
  <path
    d="M223.6 217H303.4C307.045 217 310 219.955 310 223.6V303.4C310 307.045 307.045 310 303.4 310H223.6C219.955 310 217 307.045 217 303.4V223.6C217 219.955 219.955 217 223.6 217Z"
    stroke="url(#paint11_linear-bottom_2:28)" stroke-width="2" />
  <path
    d="M439.6 109H519.4C523.045 109 526 111.955 526 115.6V195.4C526 199.045 523.045 202 519.4 202H439.6C435.955 202 433 199.045 433 195.4V115.6C433 111.955 435.955 109 439.6 109Z"
    stroke="url(#paint12_linear-bottom_2:28)" stroke-width="2" />
  <path
    d="M331.6 109H411.4C415.045 109 418 111.955 418 115.6V195.4C418 199.045 415.045 202 411.4 202H331.6C327.955 202 325 199.045 325 195.4V115.6C325 111.955 327.955 109 331.6 109Z"
    stroke="url(#paint13_linear-bottom_2:28)" stroke-width="2" />
  <path
    d="M439.6 1H519.4C523.045 1 526 3.95492 526 7.6V87.4C526 91.0451 523.045 94 519.4 94H439.6C435.955 94 433 91.0451 433 87.4V7.6C433 3.95492 435.955 1 439.6 1Z"
    stroke="url(#paint14_linear-bottom_2:28)" stroke-width="2" />
  <defs>
    <linearGradient id="paint0_linear-bottom_2:28" x1="-147.074" y1="-946.45" x2="580.626" y2="601.1"
                    gradientUnits="userSpaceOnUse">
      <stop stop-color="#F7DE52" />
      <stop offset="0.213592" stop-color="#FCB5EF" stop-opacity="0.38" />
      <stop offset="0.389458" stop-color="#FCB5EF" stop-opacity="0" />
      <stop offset="0.637411" stop-color="#FCB5EF" stop-opacity="0" />
      <stop offset="0.79923" stop-color="#FCB5EF" stop-opacity="0.38" />
      <stop offset="1" stop-color="#F7DE52" />
    </linearGradient>
    <linearGradient id="paint1_linear-bottom_2:28" x1="-147.374" y1="-946.45" x2="580.326" y2="601.1"
                    gradientUnits="userSpaceOnUse">
      <stop stop-color="#F7DE52" />
      <stop offset="0.213592" stop-color="#FCB5EF" stop-opacity="0.38" />
      <stop offset="0.389458" stop-color="#FCB5EF" stop-opacity="0" />
      <stop offset="0.637411" stop-color="#FCB5EF" stop-opacity="0" />
      <stop offset="0.79923" stop-color="#FCB5EF" stop-opacity="0.38" />
      <stop offset="1" stop-color="#F7DE52" />
    </linearGradient>
    <linearGradient id="paint2_linear-bottom_2:28" x1="-147.674" y1="-946.45" x2="580.026" y2="601.1"
                    gradientUnits="userSpaceOnUse">
      <stop stop-color="#F7DE52" />
      <stop offset="0.213592" stop-color="#FCB5EF" stop-opacity="0.38" />
      <stop offset="0.389458" stop-color="#FCB5EF" stop-opacity="0" />
      <stop offset="0.637411" stop-color="#FCB5EF" stop-opacity="0" />
      <stop offset="0.79923" stop-color="#FCB5EF" stop-opacity="0.38" />
      <stop offset="1" stop-color="#F7DE52" />
    </linearGradient>
    <linearGradient id="paint3_linear-bottom_2:28" x1="-146.774" y1="-946.45" x2="580.926" y2="601.1"
                    gradientUnits="userSpaceOnUse">
      <stop stop-color="#F7DE52" />
      <stop offset="0.213592" stop-color="#FCB5EF" stop-opacity="0.38" />
      <stop offset="0.389458" stop-color="#FCB5EF" stop-opacity="0" />
      <stop offset="0.637411" stop-color="#FCB5EF" stop-opacity="0" />
      <stop offset="0.79923" stop-color="#FCB5EF" stop-opacity="0.38" />
      <stop offset="1" stop-color="#F7DE52" />
    </linearGradient>
    <linearGradient id="paint4_linear-bottom_2:28" x1="-146.474" y1="-946.45" x2="581.226" y2="601.1"
                    gradientUnits="userSpaceOnUse">
      <stop stop-color="#F7DE52" />
      <stop offset="0.213592" stop-color="#FCB5EF" stop-opacity="0.38" />
      <stop offset="0.389458" stop-color="#FCB5EF" stop-opacity="0" />
      <stop offset="0.637411" stop-color="#FCB5EF" stop-opacity="0" />
      <stop offset="0.79923" stop-color="#FCB5EF" stop-opacity="0.38" />
      <stop offset="1" stop-color="#F7DE52" />
    </linearGradient>
    <linearGradient id="paint5_linear-bottom_2:28" x1="-147.674" y1="-946.15" x2="580.026" y2="601.4"
                    gradientUnits="userSpaceOnUse">
      <stop stop-color="#F7DE52" />
      <stop offset="0.213592" stop-color="#FCB5EF" stop-opacity="0.38" />
      <stop offset="0.389458" stop-color="#FCB5EF" stop-opacity="0" />
      <stop offset="0.637411" stop-color="#FCB5EF" stop-opacity="0" />
      <stop offset="0.79923" stop-color="#FCB5EF" stop-opacity="0.38" />
      <stop offset="1" stop-color="#F7DE52" />
    </linearGradient>
    <linearGradient id="paint6_linear-bottom_2:28" x1="-147.374" y1="-946.15" x2="580.326" y2="601.4"
                    gradientUnits="userSpaceOnUse">
      <stop stop-color="#F7DE52" />
      <stop offset="0.213592" stop-color="#FCB5EF" stop-opacity="0.38" />
      <stop offset="0.389458" stop-color="#FCB5EF" stop-opacity="0" />
      <stop offset="0.637411" stop-color="#FCB5EF" stop-opacity="0" />
      <stop offset="0.79923" stop-color="#FCB5EF" stop-opacity="0.38" />
      <stop offset="1" stop-color="#F7DE52" />
    </linearGradient>
    <linearGradient id="paint7_linear-bottom_2:28" x1="-147.074" y1="-946.15" x2="580.626" y2="601.4"
                    gradientUnits="userSpaceOnUse">
      <stop stop-color="#F7DE52" />
      <stop offset="0.213592" stop-color="#FCB5EF" stop-opacity="0.38" />
      <stop offset="0.389458" stop-color="#FCB5EF" stop-opacity="0" />
      <stop offset="0.637411" stop-color="#FCB5EF" stop-opacity="0" />
      <stop offset="0.79923" stop-color="#FCB5EF" stop-opacity="0.38" />
      <stop offset="1" stop-color="#F7DE52" />
    </linearGradient>
    <linearGradient id="paint8_linear-bottom_2:28" x1="-146.774" y1="-946.15" x2="580.926" y2="601.4"
                    gradientUnits="userSpaceOnUse">
      <stop stop-color="#F7DE52" />
      <stop offset="0.213592" stop-color="#FCB5EF" stop-opacity="0.38" />
      <stop offset="0.389458" stop-color="#FCB5EF" stop-opacity="0" />
      <stop offset="0.637411" stop-color="#FCB5EF" stop-opacity="0" />
      <stop offset="0.79923" stop-color="#FCB5EF" stop-opacity="0.38" />
      <stop offset="1" stop-color="#F7DE52" />
    </linearGradient>
    <linearGradient id="paint9_linear-bottom_2:28" x1="-147.674" y1="-945.85" x2="580.026" y2="601.7"
                    gradientUnits="userSpaceOnUse">
      <stop stop-color="#F7DE52" />
      <stop offset="0.213592" stop-color="#FCB5EF" stop-opacity="0.38" />
      <stop offset="0.389458" stop-color="#FCB5EF" stop-opacity="0" />
      <stop offset="0.637411" stop-color="#FCB5EF" stop-opacity="0" />
      <stop offset="0.79923" stop-color="#FCB5EF" stop-opacity="0.38" />
      <stop offset="1" stop-color="#F7DE52" />
    </linearGradient>
    <linearGradient id="paint10_linear-bottom_2:28" x1="-147.374" y1="-945.85" x2="580.326" y2="601.7"
                    gradientUnits="userSpaceOnUse">
      <stop stop-color="#F7DE52" />
      <stop offset="0.213592" stop-color="#FCB5EF" stop-opacity="0.38" />
      <stop offset="0.389458" stop-color="#FCB5EF" stop-opacity="0" />
      <stop offset="0.637411" stop-color="#FCB5EF" stop-opacity="0" />
      <stop offset="0.79923" stop-color="#FCB5EF" stop-opacity="0.38" />
      <stop offset="1" stop-color="#F7DE52" />
    </linearGradient>
    <linearGradient id="paint11_linear-bottom_2:28" x1="-147.074" y1="-945.85" x2="580.626" y2="601.7"
                    gradientUnits="userSpaceOnUse">
      <stop stop-color="#F7DE52" />
      <stop offset="0.213592" stop-color="#FCB5EF" stop-opacity="0.38" />
      <stop offset="0.389458" stop-color="#FCB5EF" stop-opacity="0" />
      <stop offset="0.637411" stop-color="#FCB5EF" stop-opacity="0" />
      <stop offset="0.79923" stop-color="#FCB5EF" stop-opacity="0.38" />
      <stop offset="1" stop-color="#F7DE52" />
    </linearGradient>
    <linearGradient id="paint12_linear-bottom_2:28" x1="-147.674" y1="-945.55" x2="580.026" y2="602"
                    gradientUnits="userSpaceOnUse">
      <stop stop-color="#F7DE52" />
      <stop offset="0.213592" stop-color="#FCB5EF" stop-opacity="0.38" />
      <stop offset="0.389458" stop-color="#FCB5EF" stop-opacity="0" />
      <stop offset="0.637411" stop-color="#FCB5EF" stop-opacity="0" />
      <stop offset="0.79923" stop-color="#FCB5EF" stop-opacity="0.38" />
      <stop offset="1" stop-color="#F7DE52" />
    </linearGradient>
    <linearGradient id="paint13_linear-bottom_2:28" x1="-147.374" y1="-945.55" x2="580.326" y2="602"
                    gradientUnits="userSpaceOnUse">
      <stop stop-color="#F7DE52" />
      <stop offset="0.213592" stop-color="#FCB5EF" stop-opacity="0.38" />
      <stop offset="0.389458" stop-color="#FCB5EF" stop-opacity="0" />
      <stop offset="0.637411" stop-color="#FCB5EF" stop-opacity="0" />
      <stop offset="0.79923" stop-color="#FCB5EF" stop-opacity="0.38" />
      <stop offset="1" stop-color="#F7DE52" />
    </linearGradient>
    <linearGradient id="paint14_linear-bottom_2:28" x1="-147.674" y1="-945.25" x2="580.026" y2="602.3"
                    gradientUnits="userSpaceOnUse">
      <stop stop-color="#F7DE52" />
      <stop offset="0.213592" stop-color="#FCB5EF" stop-opacity="0.38" />
      <stop offset="0.389458" stop-color="#FCB5EF" stop-opacity="0" />
      <stop offset="0.637411" stop-color="#FCB5EF" stop-opacity="0" />
      <stop offset="0.79923" stop-color="#FCB5EF" stop-opacity="0.38" />
      <stop offset="1" stop-color="#F7DE52" />
    </linearGradient>
  </defs>
</svg>

<svg width="527" height="527" fill="none" xmlns="http://www.w3.org/2000/svg"><path d="M223.6 433h79.8a6.6 6.6 0 016.6 6.6v79.8a6.6 6.6 0 01-6.6 6.6h-79.8a6.6 6.6 0 01-6.6-6.6v-79.8a6.6 6.6 0 016.6-6.6z" stroke="url(#paint0_linear-bottom_2:28)" stroke-width="2"/><path d="M331.6 433h79.8a6.6 6.6 0 016.6 6.6v79.8a6.6 6.6 0 01-6.6 6.6h-79.8a6.6 6.6 0 01-6.6-6.6v-79.8a6.6 6.6 0 016.6-6.6z" stroke="url(#paint1_linear-bottom_2:28)" stroke-width="2"/><path d="M439.6 433h79.8a6.6 6.6 0 016.6 6.6v79.8a6.6 6.6 0 01-6.6 6.6h-79.8a6.6 6.6 0 01-6.6-6.6v-79.8a6.6 6.6 0 016.6-6.6z" stroke="url(#paint2_linear-bottom_2:28)" stroke-width="2"/><path d="M115.6 433h79.8a6.6 6.6 0 016.6 6.6v79.8a6.6 6.6 0 01-6.6 6.6h-79.8a6.6 6.6 0 01-6.6-6.6v-79.8a6.6 6.6 0 016.6-6.6z" stroke="url(#paint3_linear-bottom_2:28)" stroke-width="2"/><path d="M7.6 433h79.8a6.6 6.6 0 016.6 6.6v79.8a6.6 6.6 0 01-6.6 6.6H7.6a6.6 6.6 0 01-6.6-6.6v-79.8a6.6 6.6 0 016.6-6.6z" stroke="url(#paint4_linear-bottom_2:28)" stroke-width="2"/><path d="M439.6 325h79.8a6.6 6.6 0 016.6 6.6v79.8a6.6 6.6 0 01-6.6 6.6h-79.8a6.6 6.6 0 01-6.6-6.6v-79.8a6.6 6.6 0 016.6-6.6z" stroke="url(#paint5_linear-bottom_2:28)" stroke-width="2"/><path d="M331.6 325h79.8a6.6 6.6 0 016.6 6.6v79.8a6.6 6.6 0 01-6.6 6.6h-79.8a6.6 6.6 0 01-6.6-6.6v-79.8a6.6 6.6 0 016.6-6.6z" stroke="url(#paint6_linear-bottom_2:28)" stroke-width="2"/><path d="M223.6 325h79.8a6.6 6.6 0 016.6 6.6v79.8a6.6 6.6 0 01-6.6 6.6h-79.8a6.6 6.6 0 01-6.6-6.6v-79.8a6.6 6.6 0 016.6-6.6z" stroke="url(#paint7_linear-bottom_2:28)" stroke-width="2"/><path d="M115.6 325h79.8a6.6 6.6 0 016.6 6.6v79.8a6.6 6.6 0 01-6.6 6.6h-79.8a6.6 6.6 0 01-6.6-6.6v-79.8a6.6 6.6 0 016.6-6.6z" stroke="url(#paint8_linear-bottom_2:28)" stroke-width="2"/><path d="M439.6 217h79.8a6.6 6.6 0 016.6 6.6v79.8a6.6 6.6 0 01-6.6 6.6h-79.8a6.6 6.6 0 01-6.6-6.6v-79.8a6.6 6.6 0 016.6-6.6z" stroke="url(#paint9_linear-bottom_2:28)" stroke-width="2"/><path d="M331.6 217h79.8a6.6 6.6 0 016.6 6.6v79.8a6.6 6.6 0 01-6.6 6.6h-79.8a6.6 6.6 0 01-6.6-6.6v-79.8a6.6 6.6 0 016.6-6.6z" stroke="url(#paint10_linear-bottom_2:28)" stroke-width="2"/><path d="M223.6 217h79.8a6.6 6.6 0 016.6 6.6v79.8a6.6 6.6 0 01-6.6 6.6h-79.8a6.6 6.6 0 01-6.6-6.6v-79.8a6.6 6.6 0 016.6-6.6z" stroke="url(#paint11_linear-bottom_2:28)" stroke-width="2"/><path d="M439.6 109h79.8a6.6 6.6 0 016.6 6.6v79.8a6.6 6.6 0 01-6.6 6.6h-79.8a6.6 6.6 0 01-6.6-6.6v-79.8a6.6 6.6 0 016.6-6.6z" stroke="url(#paint12_linear-bottom_2:28)" stroke-width="2"/><path d="M331.6 109h79.8a6.6 6.6 0 016.6 6.6v79.8a6.6 6.6 0 01-6.6 6.6h-79.8a6.6 6.6 0 01-6.6-6.6v-79.8a6.6 6.6 0 016.6-6.6z" stroke="url(#paint13_linear-bottom_2:28)" stroke-width="2"/><path d="M439.6 1h79.8a6.6 6.6 0 016.6 6.6v79.8a6.6 6.6 0 01-6.6 6.6h-79.8a6.6 6.6 0 01-6.6-6.6V7.6a6.6 6.6 0 016.6-6.6z" stroke="url(#paint14_linear-bottom_2:28)" stroke-width="2"/><defs><linearGradient id="paint0_linear-bottom_2:28" x1="-147.074" y1="-946.45" x2="580.626" y2="601.1" gradientUnits="userSpaceOnUse"><stop stop-color="#F7DE52"/><stop offset=".214" stop-color="#FCB5EF" stop-opacity=".38"/><stop offset=".389" stop-color="#FCB5EF" stop-opacity="0"/><stop offset=".637" stop-color="#FCB5EF" stop-opacity="0"/><stop offset=".799" stop-color="#FCB5EF" stop-opacity=".38"/><stop offset="1" stop-color="#F7DE52"/></linearGradient><linearGradient id="paint1_linear-bottom_2:28" x1="-147.374" y1="-946.45" x2="580.326" y2="601.1" gradientUnits="userSpaceOnUse"><stop stop-color="#F7DE52"/><stop offset=".214" stop-color="#FCB5EF" stop-opacity=".38"/><stop offset=".389" stop-color="#FCB5EF" stop-opacity="0"/><stop offset=".637" stop-color="#FCB5EF" stop-opacity="0"/><stop offset=".799" stop-color="#FCB5EF" stop-opacity=".38"/><stop offset="1" stop-color="#F7DE52"/></linearGradient><linearGradient id="paint2_linear-bottom_2:28" x1="-147.674" y1="-946.45" x2="580.026" y2="601.1" gradientUnits="userSpaceOnUse"><stop stop-color="#F7DE52"/><stop offset=".214" stop-color="#FCB5EF" stop-opacity=".38"/><stop offset=".389" stop-color="#FCB5EF" stop-opacity="0"/><stop offset=".637" stop-color="#FCB5EF" stop-opacity="0"/><stop offset=".799" stop-color="#FCB5EF" stop-opacity=".38"/><stop offset="1" stop-color="#F7DE52"/></linearGradient><linearGradient id="paint3_linear-bottom_2:28" x1="-146.774" y1="-946.45" x2="580.926" y2="601.1" gradientUnits="userSpaceOnUse"><stop stop-color="#F7DE52"/><stop offset=".214" stop-color="#FCB5EF" stop-opacity=".38"/><stop offset=".389" stop-color="#FCB5EF" stop-opacity="0"/><stop offset=".637" stop-color="#FCB5EF" stop-opacity="0"/><stop offset=".799" stop-color="#FCB5EF" stop-opacity=".38"/><stop offset="1" stop-color="#F7DE52"/></linearGradient><linearGradient id="paint4_linear-bottom_2:28" x1="-146.474" y1="-946.45" x2="581.226" y2="601.1" gradientUnits="userSpaceOnUse"><stop stop-color="#F7DE52"/><stop offset=".214" stop-color="#FCB5EF" stop-opacity=".38"/><stop offset=".389" stop-color="#FCB5EF" stop-opacity="0"/><stop offset=".637" stop-color="#FCB5EF" stop-opacity="0"/><stop offset=".799" stop-color="#FCB5EF" stop-opacity=".38"/><stop offset="1" stop-color="#F7DE52"/></linearGradient><linearGradient id="paint5_linear-bottom_2:28" x1="-147.674" y1="-946.15" x2="580.026" y2="601.4" gradientUnits="userSpaceOnUse"><stop stop-color="#F7DE52"/><stop offset=".214" stop-color="#FCB5EF" stop-opacity=".38"/><stop offset=".389" stop-color="#FCB5EF" stop-opacity="0"/><stop offset=".637" stop-color="#FCB5EF" stop-opacity="0"/><stop offset=".799" stop-color="#FCB5EF" stop-opacity=".38"/><stop offset="1" stop-color="#F7DE52"/></linearGradient><linearGradient id="paint6_linear-bottom_2:28" x1="-147.374" y1="-946.15" x2="580.326" y2="601.4" gradientUnits="userSpaceOnUse"><stop stop-color="#F7DE52"/><stop offset=".214" stop-color="#FCB5EF" stop-opacity=".38"/><stop offset=".389" stop-color="#FCB5EF" stop-opacity="0"/><stop offset=".637" stop-color="#FCB5EF" stop-opacity="0"/><stop offset=".799" stop-color="#FCB5EF" stop-opacity=".38"/><stop offset="1" stop-color="#F7DE52"/></linearGradient><linearGradient id="paint7_linear-bottom_2:28" x1="-147.074" y1="-946.15" x2="580.626" y2="601.4" gradientUnits="userSpaceOnUse"><stop stop-color="#F7DE52"/><stop offset=".214" stop-color="#FCB5EF" stop-opacity=".38"/><stop offset=".389" stop-color="#FCB5EF" stop-opacity="0"/><stop offset=".637" stop-color="#FCB5EF" stop-opacity="0"/><stop offset=".799" stop-color="#FCB5EF" stop-opacity=".38"/><stop offset="1" stop-color="#F7DE52"/></linearGradient><linearGradient id="paint8_linear-bottom_2:28" x1="-146.774" y1="-946.15" x2="580.926" y2="601.4" gradientUnits="userSpaceOnUse"><stop stop-color="#F7DE52"/><stop offset=".214" stop-color="#FCB5EF" stop-opacity=".38"/><stop offset=".389" stop-color="#FCB5EF" stop-opacity="0"/><stop offset=".637" stop-color="#FCB5EF" stop-opacity="0"/><stop offset=".799" stop-color="#FCB5EF" stop-opacity=".38"/><stop offset="1" stop-color="#F7DE52"/></linearGradient><linearGradient id="paint9_linear-bottom_2:28" x1="-147.674" y1="-945.85" x2="580.026" y2="601.7" gradientUnits="userSpaceOnUse"><stop stop-color="#F7DE52"/><stop offset=".214" stop-color="#FCB5EF" stop-opacity=".38"/><stop offset=".389" stop-color="#FCB5EF" stop-opacity="0"/><stop offset=".637" stop-color="#FCB5EF" stop-opacity="0"/><stop offset=".799" stop-color="#FCB5EF" stop-opacity=".38"/><stop offset="1" stop-color="#F7DE52"/></linearGradient><linearGradient id="paint10_linear-bottom_2:28" x1="-147.374" y1="-945.85" x2="580.326" y2="601.7" gradientUnits="userSpaceOnUse"><stop stop-color="#F7DE52"/><stop offset=".214" stop-color="#FCB5EF" stop-opacity=".38"/><stop offset=".389" stop-color="#FCB5EF" stop-opacity="0"/><stop offset=".637" stop-color="#FCB5EF" stop-opacity="0"/><stop offset=".799" stop-color="#FCB5EF" stop-opacity=".38"/><stop offset="1" stop-color="#F7DE52"/></linearGradient><linearGradient id="paint11_linear-bottom_2:28" x1="-147.074" y1="-945.85" x2="580.626" y2="601.7" gradientUnits="userSpaceOnUse"><stop stop-color="#F7DE52"/><stop offset=".214" stop-color="#FCB5EF" stop-opacity=".38"/><stop offset=".389" stop-color="#FCB5EF" stop-opacity="0"/><stop offset=".637" stop-color="#FCB5EF" stop-opacity="0"/><stop offset=".799" stop-color="#FCB5EF" stop-opacity=".38"/><stop offset="1" stop-color="#F7DE52"/></linearGradient><linearGradient id="paint12_linear-bottom_2:28" x1="-147.674" y1="-945.55" x2="580.026" y2="602" gradientUnits="userSpaceOnUse"><stop stop-color="#F7DE52"/><stop offset=".214" stop-color="#FCB5EF" stop-opacity=".38"/><stop offset=".389" stop-color="#FCB5EF" stop-opacity="0"/><stop offset=".637" stop-color="#FCB5EF" stop-opacity="0"/><stop offset=".799" stop-color="#FCB5EF" stop-opacity=".38"/><stop offset="1" stop-color="#F7DE52"/></linearGradient><linearGradient id="paint13_linear-bottom_2:28" x1="-147.374" y1="-945.55" x2="580.326" y2="602" gradientUnits="userSpaceOnUse"><stop stop-color="#F7DE52"/><stop offset=".214" stop-color="#FCB5EF" stop-opacity=".38"/><stop offset=".389" stop-color="#FCB5EF" stop-opacity="0"/><stop offset=".637" stop-color="#FCB5EF" stop-opacity="0"/><stop offset=".799" stop-color="#FCB5EF" stop-opacity=".38"/><stop offset="1" stop-color="#F7DE52"/></linearGradient><linearGradient id="paint14_linear-bottom_2:28" x1="-147.674" y1="-945.25" x2="580.026" y2="602.3" gradientUnits="userSpaceOnUse"><stop stop-color="#F7DE52"/><stop offset=".214" stop-color="#FCB5EF" stop-opacity=".38"/><stop offset=".389" stop-color="#FCB5EF" stop-opacity="0"/><stop offset=".637" stop-color="#FCB5EF" stop-opacity="0"/><stop offset=".799" stop-color="#FCB5EF" stop-opacity=".38"/><stop offset="1" stop-color="#F7DE52"/></linearGradient></defs></svg>
